X:516
T:Gangar fra Smalenene
M:2/4
L:1/16
K:G
D2 G2 G2 AB | c2 Bc A2 Bc | BABG E3 F | G2 FE E2 D2 | 
D2 G2 G2 AB | c2 Bc A2 Bc | BABG E3 F | G2AG G4 :| 
D2 d2 d2 ed | c2 Bc A2 Bc | BABG E3 F | G2 FE E2 D2 | 
D2 d2 d2 ed | c2 Bc A2 Bc | BABG E3 F | G2 AG G4 :| 

